!!!!SEGMENT: pl-kk--kk-i-6--040-004_anonim--missa-supra-resonet-agnus-dei.krn
!!!cenid: 16xx:1033
!!!COM: Anonim
!!!COM-rismID: pe30004985
!!!CDT:
!!!CNT:
!!!OPR: Missa supra Resonet
!!!OTL: Agnus Dei
!!!OMV: 004
!!!PDT:
!!!AGN: Sacred; Mass
!!!SMS-siglum: PL-Kk
!!!SMS-shelfmark: Kk.I.6
!!!SMS-shelfwork: 040-004 M
!!!SMS-variant:
!!!SMS-altvar:
!!!NIFC-rismSourceID: 1001135513
!!!NIFC-rismChildID: 1001136502
!!!NIFC-islandoraID: pl-kk:1634
!!!URL-pdf-islandora: https://repozytorium.nifc.pl/islandora/object/pl-kk%3A1634/datastream/PDF/view
!!!URL-scan: https://polish.musicsources.pl/pl/lokalizacje/galeria/rekopisy/6133 @EN{Scan on Polish Music Sources Website} @PL{Skany w portalu Dziedzictwo Muzyki Polskiej w otwartym dostępie}
!!!ONB-nifc: UWAGA: C (skan 0064, s. 124), T (skan 0176, s. 146), B (skan 0284-0285, s. 151-152) Części Mszy: 1. Kyrie, 2. Et in terra, 3. Sanctus, 4. Agnus Dei
!!!AIN: 1 empty 1 tenor 1 vox
!!!key:
**kern	**text	**kern	**text	**kern	**text
*part3	*part3	*part2	*part2	*part1	*part1
*staff3	*staff3	*staff2	*staff2	*staff1	*staff1
*Iempty	*	*Itenor	*	*Ivox	*
*I"Baſsus.	*	*I"Tenor.	*	*I"Cantus.	*
*I'B	*	*I'T	*	*I'S	*
*clefF4	*	*clefC4	*	*clefC1	*
*k[]	*	*k[]	*	*k[]	*
*G:	*	*G:	*	*G:	*
*M3/2	*	*M3/2	*	*M3/2	*
=1-	=1-	=1-	=1-	=1-	=1-
1G	A-	1B	A-	1dd	A-
2G\	-Gnus	2d\	-Gnus	2b\	-Gnus
=2-	=2-	=2-	=2-	=2-	=2-
1G	De-	2.B\	De-	1dd	De-
.	.	4c\	.	.	.
!LO:TX:a:t=P:global:problem=rozdzielacz słów	!	!LO:TX:a:t=P:global:problem=rozdzielacz słów	!	!	!
2GG,</	-i	2d,<\	-i	2b\	-i
=3-	=3-	=3-	=3-	=3-	=3-
*	*ij	*	*ij	*	*ij
1GG	A-	1d	A-	1b	A-
2GG/	-Gnus	2B\	-Gnus	2dd\	-Gnus
=4-	=4-	=4-	=4-	=4-	=4-
1G	De-	1d	De-	2.b\	De-
.	.	.	.	4cc\	.
2GG,</	-i	2B,<\	-i	2dd\	-i
*	*Xij	*	*Xij	*	*Xij
=5-	=5-	=5-	=5-	=5-	=5-
1G	qui	1B	Qui	1g	qui
!LO:TX:b:t=P:problem=♯ below	!	!	!	!	!
2F#X\	tol-	2A/	tol-	2a\	tol-
=6-	=6-	=6-	=6-	=6-	=6-
1G	-lis	1d	-lis	1b	-lis
2C/	pec-	2e\	pec-	2cc\	pec-
=7-	=7-	=7-	=7-	=7-	=7-
2.GG/	-ca-	2.d\	-ca-	2.b\	-ca-
4GG/	-ta	4d\	-ta	4b\	-ta
2D/	mun-	2d\	mun-	2a\	mun-
=8-	=8-	=8-	=8-	=8-	=8-
*custos:G	*	*	*	*custos:dd	*
1.GG	-di	1.d,<	-di	1.b	-di
!LO:LB:g=original	!	!	!	!LO:LB:g=original	!
=9-	=9-	=9-	=9-	=9-	=9-
1G	Mi-	1G	Mi-	1dd	Mi-
*	*	*custos:B	*	*	*
!LO:TX:b:t=P:problem=♯ below	!	!	!	!	!
2F#X\	-ſe-	2A/	-se-	2dd\	-ſe-
!	!	!LO:LB:g=original	!	!	!
=10-	=10-	=10-	=10-	=10-	=10-
1G	-re-	1B	-re-	1dd	-re-
2C/	-[re]	2c\	-re	2ee\	-re
=11-	=11-	=11-	=11-	=11-	=11-
4GG/	no-	1B	no-	1dd	no-
4AA/	.	.	.	.	.
4BB/	.	.	.	.	.
4C/	.	.	.	.	.
2D/	.	2A/	.	2dd\	-bis
=12-	=12-	=12-	=12-	=12-	=12-
2BB/	.	2B\	.	2dd\	no-
2C/	.	1A	.	2cc\	.
2D/	.	.	.	2a\	.
=13-	=13-	=13-	=13-	=13-	=13-
!	!	!	!	!LO:TX:a:t=P:global:problem=rozdzielacz słów	!
2GG,</	bis	2G,</	-bis	2b,<\	-bis
*	*	*	*	*	*ij
2G\	Mi-	2d\	Mi-	2g/	Mi-
!LO:TX:b:t=P:problem=♯ below	!	!	!	!	!
2F#X\	-ſe-	2d\	-ſe-	2a\	-ſe-
=14-	=14-	=14-	=14-	=14-	=14-
1G	-re-	1d	-re-	1b	-re-
2C/	-re	2e\	-re	2cc\	-re
=15-	=15-	=15-	=15-	=15-	=15-
4GG/	no-	1d	no-	1b	no-
4AA/	.	.	.	.	.
4BB/	.	.	.	.	.
4C/	.	.	.	.	.
2D/	.	2d\	-bis	2a\	.
=16-	=16-	=16-	=16-	=16-	=16-
2BB/	.	2d\	no-	2b\	bis
*	*	*	*	*	*Xij
2C/	.	2c\	.	1a	no-
*custos:GG	*	*	*	*	*
2D/	.	2A/	.	.	.
!LO:PB:g=original	!	!	!	!	!
=17-	=17-	=17-	=17-	=17-	=17-
*M2/1	*	*M2/1	*	*M2/1	*
*met(C|)	*	*met(C|)	*	*met(C|)	*
2GG/	-bis	2B\	-bis	2g/	-bis
4rGG	.	4r	.	4r	.
2C/	A-	2e\	A-	2cc\	A-
*	*	*	*	*custos:ee	*
4BB/	-gnus	4d\	gnus	4dd\	-gnus
!LO:TX:t=P:problem=kreska pseudotaktowa	!	!	!	!LO:LB:g=original	!
2C/	De-	2c\	De-	2ee\	De-
=18-	=18-	=18-	=18-	=18-	=18-
*	*	*custos:d	*	*	*
2GG/	-i	2B\	-i	2dd\	-i
!	!	!LO:LB:g=original	!	!	!
4r	.	4r	.	4r	.
!LO:TX:t=P:problem=kreska pseudotaktowa	!	!	!	!	!
4G\	qui	4d\	qui	4b\	Qui
4G\	tol-	4d\	tol-	4b\	tol-
8G\	-lis	8d\	-lis	8b\	-lis
8E\	pec-	8e\	pec-	8cc\	pec-
4Fny\	-ca-	4c\	-ca-	4a\	-ca-
8F\	-ta	8c,<\	-ta	8a\	-ta
!LO:TX:t=P:problem=kreska pseudotaktowa	!	!	!	!	!
8D\	pec-	8d\	pec-	8b\	pec-
=19-	=19-	=19-	=19-	=19-	=19-
2E\	-ca-	4B\	-ca-	4g/	-ca-
.	.	8B,<\	-ta	8g/	-ta
*	*	*	*ij	*	*ij
.	.	8B\	pec-	8g/	pec-
2C/	-ta	2.c\	-ca-	4a\	-ca-
.	.	.	.	4g/	-ta
*	*	*	*	*	*Xij
!	!	!	!	!LO:TX:b:t=P:problem=♯ below	!
1D	mun-	.	.	8f#X/L	mun-
.	.	.	.	16e/L	.
.	.	.	.	16f#/JJ	.
.	.	4B\	-ta	2g/	.
*	*	*	*Xij	*	*
.	.	2A/	Mun-	.	.
!	!	!	!	!LO:TX:b:t=P:problem=♯ below	!
.	.	.	.	4f#X/	.
=20-	=20-	=20-	=20-	=20-	=20-
1GG	-di	1B	-di	1g	-di
=21-	=21-	=21-	=21-	=21-	=21-
*M3/2	*	*M3/2	*	*M3/2	*
1G	Do-	1d	Do-	1dd	Do-
*	*	*	*	*custos:g	*
!LO:TX:t=P:problem=kreska pseudotaktowa	!	!	!	!	!
2G\	-na	2d\	-na	2b\	-na
!	!	!	!	!LO:LB:g=original	!
=22-	=22-	=22-	=22-	=22-	=22-
1G	no-	1d	no-	1g	no-
*custos:G	*	*	*	*	*
2G\	-bis	2d\	-bis	2b\	-bis
!LO:LB:g=original	!	!	!	!	!
=23-	=23-	=23-	=23-	=23-	=23-
1G	pa-	1d	pa-	1dd	pa-
2C/	.	2c\	.	2ee\	.
=24-	=24-	=24-	=24-	=24-	=24-
!LO:TX:t=P:problem=kreska pseudotaktowa	!	!	!	!	!
1.G	-cem	1.B	-cem	1.dd	cem
!	!	!LO:LB:g=original	!	!	!
=25-	=25-	=25-	=25-	=25-	=25-
*	*ij	*	*	*	*ij
1G	Do-	1B	Do-	1dd	Do-
2A\	-na	2c\	-na	2cc\	-na
=26-	=26-	=26-	=26-	=26-	=26-
1G	no-	1d	no-	1b	no-
!LO:TX:t=P:problem=kreska pseudotaktowa	!	!	!	!	!
2BB/	-bis	2d\	-bis	2dd\	-bis
=27-	=27-	=27-	=27-	=27-	=27-
1C	pa-	1e	pa-	1cc	pa-
2D/	.	2d\	.	2a\	.
=28-	=28-	=28-	=28-	=28-	=28-
2GG/	-cem	2d,<\	-cem	2b,<\	-cem
*	*Xij	*	*ij	*	*Xij
2G\	Do-	2d\	Do-	2b\	do-
!LO:TX:t=P:problem=kreska pseudotaktowa	!	!	!	!	!
!LO:TX:b:t=P:problem=♯ below	!	!	!	!	!
2F#X\	-na	2d\	-na	2dd\	-na
=29-	=29-	=29-	=29-	=29-	=29-
1G	no-	1.d	no-	1b	no-
2G\	-bis	.	.	2g/	-bis
=30-	=30-	=30-	=30-	=30-	=30-
4GG/	pa-	1.d	-bis	1b	pa-
4AA/	.	.	.	.	.
4BB/	.	.	.	.	.
4C/	.	.	.	.	.
!LO:TX:t=P:problem=kreska pseudotaktowa	!	!	!	!	!
2D/	cem	.	.	2a\	-cem
=31-	=31-	=31-	=31-	=31-	=31-
1AA	no-	1e	pa-	1cc	pa-
*	*	*	*	*custos:a	*
2BB/	-bis	2d\	-cem	2b\	.
!	!	!	!	!LO:LB:g=original	!
=32-	=32-	=32-	=32-	=32-	=32-
2C/	pa-	2c\	Do-	2.a\	.
*custos:GG	*	*	*	*	*
1D	.	1A	-na	.	.
.	.	.	.	4g/	.
.	.	.	.	2a\	.
!LO:LB:g=original	!	!	!	!	!
=33-	=33-	=33-	=33-	=33-	=33-
2GG/	-cem	2B\	no-	2g,</	-cem
2G\	Do-	2d\	-bis	2b\	do-
!LO:TX:t=P:problem=kreska pseudotaktowa	!	!	!	!	!
!LO:TX:b:t=P:problem=♯ below	!	!	!	!	!
2F#X\	-na	2d\	pa-	2dd\	-na
=34-	=34-	=34-	=34-	=34-	=34-
1G	no-	1.d	-cem	1b	no-
2G\	-bis	.	.	2g/	-bis
=35-	=35-	=35-	=35-	=35-	=35-
*	*	*custos:e	*	*	*
4GG/	pa-	1.d	Do-	1b	pa-
4AA/	.	.	.	.	.
4BB/	.	.	.	.	.
4C/	.	.	.	.	.
!LO:TX:t=P:problem=kreska pseudotaktowa	!	!	!	!	!
2D/	-cem	.	.	2a\	.
!	!	!LO:TX:a:t=P:global:problem=rozdzielacz słów	!	!	!
=36-	=36-	=36-	=36-	=36-	=36-
1AA	no-	1e	-na	1cc	cem
2BB/	.	2d\	no-	2b\	pa-
=37-	=37-	=37-	=37-	=37-	=37-
2C/	-bis	2c\	-bis	2.a\	.
*	*	*	*Xij	*	*
1D	pa-	1A	pa-	.	.
.	.	.	.	4g/	.
.	.	.	.	2a\	.
=38-	=38-	=38-	=38-	=38-	=38-
*M2/1	*	*M2/1	*	*M2/1	*
*met(C|)	*	*met(C|)	*	*met(C|)	*
!LO:TX:t=P:problem=kreska pseudotaktowa	!	!	!	!	!
1GG	-cem	1B	-cem	1g	-cem
4G\	do-	4d\	do-	4g/	do-
4F#X\	-na	4d\	-na	4a\	-na
4G\	no-	4d\	no-	4b\	no-
!LO:TX:t=P:problem=kreska pseudotaktowa	!	!	!	!	!
4C/	-bis	4c\	-bis	4cc\	-bis
=39-	=39-	=39-	=39-	=39-	=39-
4GG/	pa-	2d\	pa-	4b\	pa-
*	*	*	*	*custos:b	*
4D/	.	.	.	4a\	.
*custos:G	*	*	*	*	*
!	!	!	!	!LO:LB:g=original	!
2GG/	-cem	2d\	-cem	2b\	-cem
!LO:LB:g=original	!	!	!	!	!
*	*	*	*ij	*	*
4G\	Do-	4G/	do-	4dd\	do-
!LO:TX:b:t=P:problem=♯ below	!	!	!	!	!
4F#X\	-na	4A\	-na	4dd\	-na
4G\	no-	4B\	no-	4dd\	no-
!LO:TX:t=P:problem=kreska pseudotaktowa	!	!	!	!	!
4C/	-bis	4c\	-bis	4cc\	-bis
=40-	=40-	=40-	=40-	=40-	=40-
4G\	pa-	(4B\	pa-	2dd\	pa-
4D\	.	4A\)	.	.	.
2GG/	-cem	2B,<\	cem	2dd\	-cem
*	*	*	*Xij	*	*
2C/	No-	2e\	No-	2cc\	No-
!LO:TX:t=P:problem=kreska pseudotaktowa	!	!	!	!	!
2GG/	-bis	2d\	-bis	2b\	-bis
=41-	=41-	=41-	=41-	=41-	=41-
1D	pa-	1d	pa-	1a	pa-
!LO:TX:b:t=A D. 1688. Scrip(si)t.	!	!LO:TX:b:t=1688.\nScr(ipsi)t.	!	!LO:TX:b:t=A.D. 1688\nScrip(si)t.	!
1GGl	-cem.	1dl	-cem	1bl	-cem.
==	==	==	==	==	==
*-	*-	*-	*-	*-	*-
!!!system-decoration: [s1,s2,s3]
!!!RDF**kern: < = below
!!!RDF**kern: l = terminal long
!!!ENC: Marta Lawrence
!!!END: 2021-03-23
!!!ENC: Krzysztof Stępień
!!!END: 2021-03-09
!!!YEC: Copyright 2022 Narodowy Instytut Fryderyka Chopina (https://polishscores.org)
!!!YEM: License CC-BY-4.0 (https://creativecommons.org/licenses/by/4.0)
